X:1
T:[ID 1-18]
T:[ID 1-18]
T:Bezeichnung standardisiert: Menuett Men\"uet
T:Urheber unbekannt Datum in der hier transkribierten schriftlichen Quelle: vermutlich vor 1767
C:Urheber unbekannt
C:Datum in der hier transkribierten schriftlichen Quelle: vermutlich vor 1767
L:1/8
M:3/4
K:G
V:1 treble 
V:1
 GBdgfg | a2 d2 c2 | BdecAG | F2 EF D2 | dgfedc | Bgfedc | B2 AG A(B/c/) | B4 A2 | GBdgfg | %9
 a2 d2 c2 | Bdec"^[sic]"BAG | F2 EF D2 | dBcABG | DB,CA,B,G, | A,2 G2 F2 | G6 :: BcBcBc | %17
 B2 b2 a2 | gebged | ^cAecAG | FAdefd | A^cefge | fg a2 b2 | ^c3 Ace | afgefd | AFGEFD | %26
 E2 d2 ^c2 | d6 | dcBAGd | egfedc | Bdec"^[sic]"BAG | F2 EF D2 | cBcABG | DB,CA,B,G, | A,2 G2 F2 | %35
 G6 :| %36

